X: 28876
T: Mysterious Images
R: jig
M: 6/8
K: Bminor
|:FFB BAF|fff ecB|AAA AFE|Ace fec|
ddc BAF|Ace fff|afe f2a|1 fec fec:|2 fec Bcc||
|:d2c BAF|cea edc|ABF FEF|def efa|
b2f fef|aea fdc|BFd cde|1 fdc BBc:|2 fdc BBA||

